src/64x64/places/folder-gruvbox-mix-red-onedrive.svg

<?xml version="1.0" encoding="UTF-8"?>
<svg width="64" height="64" version="1" xmlns="http://www.w3.org/2000/svg">
 <rect x="4" y="22" width="56" height="36" rx="2.8" ry="2.8" opacity=".2"/>
 <path d="m4 46.2c0 1.551 1.2488 2.8 2.8 2.8h50.4c1.551 0 2.8-1.249 2.8-2.8v-30.4c0-1.551-1.249-2.8-2.8-2.8h-25.2c-4.2 0-5.6-6-9.8-6h-15.4c-1.5512 0-2.8 1.2488-2.8 2.8" fill="#af2528"/>
 <rect x="4" y="20" width="56" height="36" rx="2.8" ry="2.8" opacity=".2"/>
 <rect x="8" y="16" width="48" height="22" rx="2.8" ry="2.8" fill="#f1d9b5"/>
 <rect x="4" y="21" width="56" height="36" rx="2.8" ry="2.8" fill="#f2594b"/>
 <path d="m6.8008 7c-1.5512 0-2.8008 1.2496-2.8008 2.8008v1.0002c0-1.5514 1.2496-2.801 2.8008-2.801h15.398c4.2 0 5.601 6 9.801 6h25.199c1.551 0 2.801 1.25 2.801 2.801v-1c0-1.551-1.25-2.801-2.801-2.801h-25.199c-4.2 0-5.601-6-9.801-6z" fill="#f1d9b5" opacity=".1"/>
 <path d="m33 31a6 6 0 0 0-5.5273 3.668c-0.75034-0.42998-1.5995-0.66631-2.4727-0.66797-2.7614 0-5 2.2386-5 5 0.0024 0.33747 0.03914 0.67382 0.10938 1.0039-0.03644-0.0018-0.072895-0.003106-0.10938-0.003906-2.2091 0-4 1.7909-4 4s1.7909 4 4 4c0.76815-0.0018 1.5193-0.22519 2.1641-0.64258-0.049583-0.2105-0.090738-0.42453-0.11719-0.64258-0.00143-0.011104-0.002538-0.022082-0.003906-0.033203-0.025912-0.22424-0.042969-0.45096-0.042969-0.68164 0-2.7023 1.8617-4.9207 4.3379-5.6602 0.04867-0.19171 0.12612-0.37109 0.18945-0.55664 0.001079-0.00311 9.85e-4 -0.006611 0.001953-0.009765 0.009093-0.029659 0.014914-0.06075 0.025391-0.089844 0.006427-0.018302 0.015779-0.03507 0.023437-0.052735 9.89e-4 -0.002704 0.002914-0.00511 0.003906-0.007812 0.11423-0.31107 0.24902-0.60882 0.40234-0.89844 0.0016-0.0031 0.002206-0.006665 0.003906-0.009765 6.77e-4 -0.001293 0.0011-0.002742 0.001953-0.003906l0.001954-0.001954c1.1624-2.1829 3.3735-3.709 6.0078-3.709a2.0002 2.0002 0 0 0 0.001953 0c2.4276 0.001194 4.5943 1.2914 5.8555 3.2656a6 6 0 0 0 0.14258-1.2656 6 6 0 0 0-6-6zm0 6c-2.7614 0-5 2.2386-5 5-2.2091 0-4 1.7909-4 4s1.7909 4 4 4h17c1.6568 0 3-1.3432 3-3 0-1.6568-1.3432-3-3-3-0.34375 0.0017-0.68465 0.062508-1.0078 0.17969 0.003999-0.059821 0.006612-0.11975 0.007812-0.17969 0-2.2091-1.7909-4-4-4-0.77705 3.58e-4 -1.5372 0.22704-2.1875 0.65234-0.60411-2.1585-2.571-3.6512-4.8125-3.6523z" fill="#4c3432"/>
</svg>

<svg xmlns="http://www.w3.org/2000/svg" width="64" height="64" version="1">
 <rect style="opacity:0.2" width="56" height="36" x="4" y="22" rx="2.8" ry="2.8"/>
 <path style="fill:#af2528" d="M 4,46.2 C 4,47.751 5.2488,49 6.8,49 H 57.2 C 58.751,49 60,47.751 60,46.2 V 15.8 C 60,14.249 58.751,13 57.2,13 H 32 C 27.8,13 26.4,7 22.2,7 H 6.8 C 5.2488,7 4,8.2488 4,9.8"/>
 <rect style="opacity:0.2" width="56" height="36" x="4" y="20" rx="2.8" ry="2.8"/>
 <rect style="fill:#f1d9b5" width="48" height="22" x="8" y="16" rx="2.8" ry="2.8"/>
 <rect style="fill:#f2594b" width="56" height="36" x="4" y="21" rx="2.8" ry="2.8"/>
 <path style="opacity:0.1;fill:#f1d9b5" d="M 6.8008,7 C 5.2496,7 4,8.2496 4,9.8008 V 10.801 C 4,9.2496 5.2496,8 6.8008,8 H 22.199 C 26.399,8 27.8,14 32,14 H 57.199 C 58.75,14 60,15.25 60,16.801 V 15.801 C 60,14.25 58.75,13 57.199,13 H 32 C 27.8,13 26.399,7 22.199,7 Z"/>
 <path style="fill:#4c3432" d="M 33 31 A 6 6 0 0 0 27.472656 34.667969 C 26.722316 34.237991 25.873118 34.00166 25 34 C 22.238588 34 20 36.238589 20 39 C 20.0024 39.337469 20.03914 39.673821 20.109375 40.003906 C 20.072935 40.002106 20.03648 40.0008 20 40 C 17.790872 40 16 41.790872 16 44 C 16 46.209128 17.790872 48 20 48 C 20.768147 47.9982 21.519285 47.774814 22.164062 47.357422 C 22.114479 47.146925 22.073324 46.932891 22.046875 46.714844 C 22.045445 46.70374 22.044337 46.692762 22.042969 46.681641 C 22.017057 46.457397 22 46.230681 22 46 C 22 43.29774 23.861683 41.079291 26.337891 40.339844 C 26.386561 40.148138 26.464011 39.968756 26.527344 39.783203 C 26.528423 39.780093 26.528329 39.776592 26.529297 39.773438 C 26.53839 39.743779 26.544211 39.712688 26.554688 39.683594 C 26.561115 39.665292 26.570467 39.648524 26.578125 39.630859 C 26.579114 39.628155 26.581039 39.625749 26.582031 39.623047 C 26.696265 39.311978 26.831048 39.014229 26.984375 38.724609 C 26.985975 38.721509 26.986581 38.717944 26.988281 38.714844 C 26.988958 38.713551 26.989381 38.712102 26.990234 38.710938 C 26.990234 38.710938 26.992188 38.708984 26.992188 38.708984 C 28.154553 36.526048 30.365646 35 33 35 A 2.0002 2.0002 0 0 0 33.001953 35 C 35.429543 35.001194 37.596251 36.291435 38.857422 38.265625 A 6 6 0 0 0 39 37 A 6 6 0 0 0 33 31 z M 33 37 C 30.238588 37 28 39.238588 28 42 C 25.790872 42 24 43.790872 24 46 C 24 48.209128 25.790872 50 28 50 L 45 50 C 46.656846 50 48 48.656847 48 47 C 48 45.343154 46.656846 44 45 44 C 44.656249 44.0017 44.315349 44.062508 43.992188 44.179688 C 43.996187 44.119867 43.9988 44.05994 44 44 C 44 41.790872 42.209128 40 40 40 C 39.222951 40.000358 38.462823 40.227038 37.8125 40.652344 C 37.208387 38.493816 35.241481 37.001102 33 37 z"/>
</svg>
